X: 40880
T: Tribute To Peadar O'Donnell
R: waltz
M: 3/4
K: Eminor
DA|DE F4|Bd B4|BA Bd d2|d4 BA|
A4 D2|EF G4|AB A2 FD|D2 EF E2||
DE F4|F2 ed B2|BA Bd d2|d4 BA|
A4 D2|EF G4|AB A2 FD|D2 EF E2||
DE F4|F2 ed B2|BA Bd d2|g2 gf f2|
f2 fe d2|ed B2 BA|GF F2 ED|D2 EF E2||
DE F4|F2 A2 B2|BA Bd d2|g2 gf f2|
f2 fe d _e|ed B2 BA|GF F2 ED|D2 EF E2||
FG E2 A2|AB c4|c2 cB cd|d2 d2 cB|
B2 BA Bd|dc BA A2|GF FE D2|D2 EF E2||
FG E2 A2|AB c4|c2 cB ce|e2 d2 cB|
B2 BA Bd|dc BA A2|GF FE D2|D2 EF E2||

